X:1
T:[ID 11-10a]
T:[ID 11-10a]
T:Bezeichnung standardisiert: Menuett Men\"uet
T:Urheber unbekannt Datum in der hier transkribierten schriftlichen Quelle: vermutlich um 1800
C:Urheber unbekannt
C:Datum in der hier transkribierten schriftlichen Quelle: vermutlich um 1800
L:1/8
M:3/4
K:D
V:1 treble 
V:1
 a4 ba | a2 g>f g/ f2 |{a} (3gfe e2 c2 | d4 A>d | d2 c2 e>g | g2 f2 a>f | b>d g2 (3fga | e6 :: %8
 a2 (e2 f2) | Tg4{fg} f2 | e2 g>ef>d |{d} c3 B A2 | a2 (e2 f2) | g4{fg} f2 | e>f B>d d2{cd} | %15
 e4 A2 | (BA)(dc)(ed) | (fe)(gf)(ab) | B>e d2 c2 | d6 :| %20

